new.xmp
<x:xmpmeta xmlns:x="adobe:ns:meta/" x:xmptk="Adobe XMP Core 7.0-c000 1.000000, 0000/00/00-00:00:00        ">
 <rdf:RDF xmlns:rdf="http://www.w3.org/1999/02/22-rdf-syntax-ns#">
  <rdf:Description rdf:about="" xmlns:xmp="http://ns.adobe.com/xap/1.0/" xmlns:crd="http://ns.adobe.com/camera-raw-defaults/1.0/" xmlns:photoshop="http://ns.adobe.com/photoshop/1.0/" xmlns:stCamera="http://ns.adobe.com/photoshop/1.0/camera-profile" xmlns:crlcp="http://ns.adobe.com/camera-raw-embedded-lens-profile/1.0/" xmlns:tiff="http://ns.adobe.com/tiff/1.0/" xmlns:exif="http://ns.adobe.com/exif/1.0/" xmlns:aux="http://ns.adobe.com/exif/1.0/aux/" xmlns:exifEX="http://cipa.jp/exif/1.0/" xmlns:xmpMM="http://ns.adobe.com/xap/1.0/mm/" xmlns:stEvt="http://ns.adobe.com/xap/1.0/sType/ResourceEvent#" xmlns:xmpRights="http://ns.adobe.com/xap/1.0/rights/" xmlns:crs="http://ns.adobe.com/camera-raw-settings/1.0/" xmlns:Iptc4xmpCore="http://iptc.org/std/Iptc4xmpCore/1.0/xmlns/" xmp:CreatorTool="NIKON Z 6_2 Ver.01.40   " xmp:CreateDate="2022-04-30T11:37:36.93-04:00" xmp:Rating="3" xmp:ModifyDate="2022-04-30T11:37:36.93-04:00" xmp:MetadataDate="2022-05-08T10:46:30-04:00" crd:Exposure2012="0.00" crd:Highlights2012="0" crd:Shadows2012="0" crd:LuminanceSmoothing="34" crd:LuminanceNoiseReductionDetail="75" crd:LuminanceNoiseReductionContrast="0" crd:ColorNoiseReduction="10" crd:ColorNoiseReductionDetail="50" crd:ColorNoiseReductionSmoothness="50" crd:Sharpness="40" crd:SharpenRadius="2.00" crd:SharpenDetail="25" crd:SharpenEdgeMasking="0" crd:Contrast2012="-12" crd:Saturation="4" crd:CameraProfile="Camera Standard" crd:HueAdjustmentRed="0" crd:HueAdjustmentOrange="0" crd:HueAdjustmentYellow="0" crd:SaturationAdjustmentRed="0" crd:SaturationAdjustmentOrange="0" crd:SaturationAdjustmentYellow="0" crd:LuminanceAdjustmentRed="0" crd:LuminanceAdjustmentOrange="0" crd:LuminanceAdjustmentYellow="0" crd:LensProfileEnable="1" photoshop:DateCreated="2022-04-30T11:37:36.93-04:00" photoshop:SidecarForExtension="NEF" photoshop:EmbeddedXMPDigest="4A66D1DD24A0BCA87DAC2FBC1123D447" tiff:Make="NIKON CORPORATION" tiff:Model="NIKON Z 6_2" tiff:Orientation="1" tiff:ImageWidth="6048" tiff:ImageLength="4024" exif:ExifVersion="0231" exif:ExposureTime="1/125" exif:ShutterSpeedValue="6965784/1000000" exif:FNumber="4/1" exif:ApertureValue="4/1" exif:ExposureProgram="1" exif:SensitivityType="2" exif:RecommendedExposureIndex="800" exif:ExposureBiasValue="0/6" exif:MeteringMode="5" exif:LightSource="4" exif:FocalLength="140/10" exif:SensingMethod="2" exif:FileSource="3" exif:SceneType="1" exif:FocalLengthIn35mmFilm="14" exif:CustomRendered="1" exif:ExposureMode="1" exif:WhiteBalance="1" exif:SceneCaptureType="0" exif:GainControl="1" exif:Contrast="0" exif:Saturation="0" exif:Sharpness="0" exif:SubjectDistanceRange="0" exif:FocalPlaneXResolution="55150724/32768" exif:FocalPlaneYResolution="55150724/32768" exif:FocalPlaneResolutionUnit="3" exif:LensMake="NIKON" exif:DateTimeOriginal="2022-04-30T11:37:36.93-04:00" exif:PixelXDimension="6048" exif:PixelYDimension="4024" aux:SerialNumber="3006450" aux:LensInfo="140/10 240/10 280/100 280/100" aux:Lens="NIKKOR Z 14-24mm f/2.8 S" aux:LensSerialNumber="20003175" aux:ImageNumber="20906" exifEX:LensModel="NIKKOR Z 14-24mm f/2.8 S" exifEX:LensMake="NIKON" xmpMM:DocumentID="4549D73471A8CA81D8EDD961634AE301" xmpMM:PreservedFileName="AM3_0908.NEF" xmpMM:OriginalDocumentID="4549D73471A8CA81D8EDD961634AE301" xmpMM:InstanceID="xmp.iid:fa5d88d5-cdac-4265-bfd7-50c806dda8f3" dc:format="image/x-nikon-nef" xmpRights:WebStatement="www.andremaier.com" crs:Version="14.3" crs:ProcessVersion="11.0" crs:WhiteBalance="As Shot" crs:Temperature="6150" crs:Tint="+1" crs:Exposure2012="+0.10" crs:Contrast2012="0" crs:Highlights2012="0" crs:Shadows2012="+20" crs:Whites2012="0" crs:Blacks2012="-20" crs:Texture="0" crs:Clarity2012="+10" crs:Dehaze="0" crs:Vibrance="0" crs:Saturation="0" crs:ParametricShadows="-8" crs:ParametricDarks="+18" crs:ParametricLights="+22" crs:ParametricHighlights="-12" crs:ParametricShadowSplit="25" crs:ParametricMidtoneSplit="50" crs:ParametricHighlightSplit="75" crs:Sharpness="70" crs:SharpenRadius="+1.5" crs:SharpenDetail="50" crs:SharpenEdgeMasking="60" crs:LuminanceSmoothing="5" crs:LuminanceNoiseReductionDetail="50" crs:LuminanceNoiseReductionContrast="0" crs:ColorNoiseReduction="15" crs:ColorNoiseReductionDetail="50" crs:ColorNoiseReductionSmoothness="50" crs:HueAdjustmentRed="-5" crs:HueAdjustmentOrange="0" crs:HueAdjustmentYellow="0" crs:HueAdjustmentGreen="+5" crs:HueAdjustmentAqua="0" crs:HueAdjustmentBlue="+5" crs:HueAdjustmentPurple="0" crs:HueAdjustmentMagenta="0" crs:SaturationAdjustmentRed="-7" crs:SaturationAdjustmentOrange="-7" crs:SaturationAdjustmentYellow="+15" crs:SaturationAdjustmentGreen="+15" crs:SaturationAdjustmentAqua="0" crs:SaturationAdjustmentBlue="+20" crs:SaturationAdjustmentPurple="0" crs:SaturationAdjustmentMagenta="0" crs:LuminanceAdjustmentRed="+20" crs:LuminanceAdjustmentOrange="+20" crs:LuminanceAdjustmentYellow="-10" crs:LuminanceAdjustmentGreen="-15" crs:LuminanceAdjustmentAqua="0" crs:LuminanceAdjustmentBlue="-17" crs:LuminanceAdjustmentPurple="+5" crs:LuminanceAdjustmentMagenta="0" crs:SplitToningShadowHue="0" crs:SplitToningShadowSaturation="0" crs:SplitToningHighlightHue="0" crs:SplitToningHighlightSaturation="0" crs:SplitToningBalance="0" crs:ColorGradeMidtoneHue="0" crs:ColorGradeMidtoneSat="0" crs:ColorGradeShadowLum="0" crs:ColorGradeMidtoneLum="0" crs:ColorGradeHighlightLum="0" crs:ColorGradeBlending="50" crs:ColorGradeGlobalHue="0" crs:ColorGradeGlobalSat="0" crs:ColorGradeGlobalLum="0" crs:AutoLateralCA="0" crs:LensProfileEnable="1" crs:LensManualDistortionAmount="0" crs:VignetteAmount="0" crs:DefringePurpleAmount="0" crs:DefringePurpleHueLo="30" crs:DefringePurpleHueHi="70" crs:DefringeGreenAmount="0" crs:DefringeGreenHueLo="40" crs:DefringeGreenHueHi="60" crs:PerspectiveUpright="0" crs:PerspectiveVertical="0" crs:PerspectiveHorizontal="0" crs:PerspectiveRotate="0.0" crs:PerspectiveAspect="0" crs:PerspectiveScale="100" crs:PerspectiveX="0.00" crs:PerspectiveY="0.00" crs:GrainAmount="9" crs:GrainSize="11" crs:GrainFrequency="58" crs:PostCropVignetteAmount="0" crs:ShadowTint="0" crs:RedHue="0" crs:RedSaturation="0" crs:GreenHue="0" crs:GreenSaturation="0" crs:BlueHue="0" crs:BlueSaturation="0" crs:OverrideLookVignette="False" crs:ToneCurveName2012="Linear" crs:CameraProfile="Adobe Standard" crs:CameraProfileDigest="E64043500644C9C17EDAD0F6907DEDF2" crs:LensProfileSetup="LensDefaults" crs:LensProfileName="Camera Settings" crs:LensProfileDigest="1B692F7C7E13F186E984867254B96D5B" crs:LensProfileIsEmbedded="True" crs:LensProfileDistortionScale="100" crs:LensProfileVignettingScale="100" crs:GrainSeed="3756351128" crs:HasSettings="True" crs:AlreadyApplied="False" crs:RawFileName="AM3_0908.NEF" xmlns:dc="http://purl.org/dc/elements/1.1/">
   <photoshop:CameraProfiles>
    <rdf:Seq>
     <rdf:li>
      <rdf:Description stCamera:Author="Adobe" stCamera:Make="NIKON CORPORATION" stCamera:Model="NIKON Z 6_2" stCamera:UniqueCameraModel="Nikon Z 6 2" stCamera:CameraRawProfile="True" stCamera:AutoScale="False" stCamera:Lens="NIKKOR Z 14-24mm f/2.8 S" stCamera:CameraPrettyName="Nikon Z 6 2" stCamera:LensPrettyName="NIKKOR Z 14-24mm f/2.8 S" stCamera:ProfileName="Camera Settings" stCamera:SensorFormatFactor="1.002437" stCamera:FocalLength="14" stCamera:FocusDistance="10000" stCamera:ApertureValue="4" xmlns:dc="http://purl.org/dc/elements/1.1/">
      <crlcp:PerspectiveModel>
       <rdf:Description stCamera:Version="2" stCamera:ImageXCenter="0.501424" stCamera:ImageYCenter="0.500791" stCamera:ScaleFactor="1.0112" stCamera:RadialDistortParam1="-0.024224" stCamera:RadialDistortParam2="0.001599" stCamera:RadialDistortParam3="0.000118" xmlns:dc="http://purl.org/dc/elements/1.1/">
       <crlcp:VignetteModel>
        <rdf:Description stCamera:ImageXCenter="0.501424" stCamera:ImageYCenter="0.500791" stCamera:VignetteModelParam1="1" xmlns:dc="http://purl.org/dc/elements/1.1/">
        <stCamera:VignetteModelPiecewiseParam>
         <rdf:Seq>
          <rdf:li>0.000000, 1.000000</rdf:li>
          <rdf:li>0.049877, 0.999685</rdf:li>
          <rdf:li>0.099754, 0.998742</rdf:li>
          <rdf:li>0.149631, 0.997178</rdf:li>
          <rdf:li>0.199508, 0.995008</rdf:li>
          <rdf:li>0.249385, 0.992245</rdf:li>
          <rdf:li>0.299262, 0.988907</rdf:li>
          <rdf:li>0.349139, 0.985010</rdf:li>
          <rdf:li>0.399016, 0.980571</rdf:li>
          <rdf:li>0.448893, 0.975596</rdf:li>
          <rdf:li>0.498770, 0.970088</rdf:li>
          <rdf:li>0.548647, 0.964037</rdf:li>
          <rdf:li>0.598524, 0.957422</rdf:li>
          <rdf:li>0.648401, 0.950202</rdf:li>
          <rdf:li>0.698278, 0.942323</rdf:li>
          <rdf:li>0.748155, 0.933706</rdf:li>
          <rdf:li>0.798032, 0.924255</rdf:li>
          <rdf:li>0.847909, 0.913848</rdf:li>
          <rdf:li>0.897786, 0.902344</rdf:li>
          <rdf:li>0.947663, 0.889585</rdf:li>
          <rdf:li>0.997540, 0.875395</rdf:li>
          <rdf:li>1.047417, 0.859593</rdf:li>
          <rdf:li>1.097294, 0.841998</rdf:li>
          <rdf:li>1.147171, 0.822442</rdf:li>
          <rdf:li>1.197048, 0.800782</rdf:li>
          <rdf:li>1.246925, 0.776916</rdf:li>
          <rdf:li>1.296802, 0.750799</rdf:li>
          <rdf:li>1.346679, 0.722456</rdf:li>
          <rdf:li>1.396556, 0.691992</rdf:li>
          <rdf:li>1.446433, 0.659599</rdf:li>
          <rdf:li>1.496311, 0.625552</rdf:li>
          <rdf:li>1.546188, 0.590203</rdf:li>
         </rdf:Seq>
        </stCamera:VignetteModelPiecewiseParam>
        </rdf:Description>
       </crlcp:VignetteModel>
       </rdf:Description>
      </crlcp:PerspectiveModel>
      </rdf:Description>
     </rdf:li>
    </rdf:Seq>
   </photoshop:CameraProfiles>
   <exif:ISOSpeedRatings>
    <rdf:Seq>
     <rdf:li>800</rdf:li>
    </rdf:Seq>
   </exif:ISOSpeedRatings>
   <exif:Flash
    exif:Fired="True"
    exif:Return="2"
    exif:Mode="1"
    exif:Function="False"
    exif:RedEyeMode="False"/>
   <xmpMM:History>
    <rdf:Seq>
     <rdf:li
      stEvt:action="saved"
      stEvt:instanceID="xmp.iid:5baa551c-ad94-456a-add2-1348fc1d2d34"
      stEvt:when="2022-04-30T13:11:15-04:00"
      stEvt:softwareAgent="Adobe Photoshop Lightroom Classic 11.3.1 (Macintosh)"
      stEvt:changed="/metadata"/>
     <rdf:li
      stEvt:action="saved"
      stEvt:instanceID="xmp.iid:fa5d88d5-cdac-4265-bfd7-50c806dda8f3"
      stEvt:when="2022-05-08T10:46:30-04:00"
      stEvt:softwareAgent="Adobe Photoshop Lightroom Classic 11.3.1 (Macintosh)"
      stEvt:changed="/metadata"/>
    </rdf:Seq>
   </xmpMM:History>
   <dc:creator>
    <rdf:Seq>
     <rdf:li>Andre Maier</rdf:li>
    </rdf:Seq>
   </dc:creator>
   <dc:rights>
    <rdf:Alt>
     <rdf:li xml:lang="x-default">© Andre Maier</rdf:li>
    </rdf:Alt>
   </dc:rights>
   <crs:ToneCurvePV2012>
    <rdf:Seq>
     <rdf:li>0, 0</rdf:li>
     <rdf:li>255, 255</rdf:li>
    </rdf:Seq>
   </crs:ToneCurvePV2012>
   <crs:ToneCurvePV2012Red>
    <rdf:Seq>
     <rdf:li>0, 0</rdf:li>
     <rdf:li>255, 255</rdf:li>
    </rdf:Seq>
   </crs:ToneCurvePV2012Red>
   <crs:ToneCurvePV2012Green>
    <rdf:Seq>
     <rdf:li>0, 0</rdf:li>
     <rdf:li>255, 255</rdf:li>
    </rdf:Seq>
   </crs:ToneCurvePV2012Green>
   <crs:ToneCurvePV2012Blue>
    <rdf:Seq>
     <rdf:li>0, 0</rdf:li>
     <rdf:li>255, 255</rdf:li>
    </rdf:Seq>
   </crs:ToneCurvePV2012Blue>
   <crs:Look>
    <rdf:Description crs:Name="Adobe Color" crs:Amount="1" crs:UUID="B952C231111CD8E0ECCF14B86BAA7077" crs:SupportsAmount="false" crs:SupportsMonochrome="false" crs:SupportsOutputReferred="false" xmlns:dc="http://purl.org/dc/elements/1.1/">
    <crs:Group>
     <rdf:Alt>
      <rdf:li xml:lang="x-default">Profiles</rdf:li>
     </rdf:Alt>
    </crs:Group>
    <crs:Parameters>
     <rdf:Description crs:Version="14.3" crs:ProcessVersion="11.0" crs:ConvertToGrayscale="False" crs:CameraProfile="Adobe Standard" crs:LookTable="E1095149FDB39D7A057BAB208837E2E1" xmlns:dc="http://purl.org/dc/elements/1.1/">
     <crs:ToneCurvePV2012>
      <rdf:Seq>
       <rdf:li>0, 0</rdf:li>
       <rdf:li>22, 16</rdf:li>
       <rdf:li>40, 35</rdf:li>
       <rdf:li>127, 127</rdf:li>
       <rdf:li>224, 230</rdf:li>
       <rdf:li>240, 246</rdf:li>
       <rdf:li>255, 255</rdf:li>
      </rdf:Seq>
     </crs:ToneCurvePV2012>
     <crs:ToneCurvePV2012Red>
      <rdf:Seq>
       <rdf:li>0, 0</rdf:li>
       <rdf:li>255, 255</rdf:li>
      </rdf:Seq>
     </crs:ToneCurvePV2012Red>
     <crs:ToneCurvePV2012Green>
      <rdf:Seq>
       <rdf:li>0, 0</rdf:li>
       <rdf:li>255, 255</rdf:li>
      </rdf:Seq>
     </crs:ToneCurvePV2012Green>
     <crs:ToneCurvePV2012Blue>
      <rdf:Seq>
       <rdf:li>0, 0</rdf:li>
       <rdf:li>255, 255</rdf:li>
      </rdf:Seq>
     </crs:ToneCurvePV2012Blue>
     </rdf:Description>
    </crs:Parameters>
    </rdf:Description>
   </crs:Look>
   <Iptc4xmpCore:CreatorContactInfo
    Iptc4xmpCore:CiAdrRegion="NY "
    Iptc4xmpCore:CiAdrCity="New York "
    Iptc4xmpCore:CiAdrCtry="usa"
    Iptc4xmpCore:CiEmailWork="andre@andremaier.com"
    Iptc4xmpCore:CiUrlWork="www.andremaier.com"/>
  </rdf:Description>
 </rdf:RDF>
</x:xmpmeta>
